X: 27
T: No_23_Sun_Dance_Song_(f).krn
N: Derived from No_23_Sun_Dance_Song_(f).krn
%%abc-version 2.0
%%abcx-abcm2ps-target-version 5.9.1 (29 Sep 2008)
%%abc-creator hum2abc beta
%%abcx-conversion-date 2019/03/15 08:36:49
%%humdrum-veritas 2991456400
%%humdrum-veritas-data 283866215
%%linebreak <none>
%%barnumbers 0
L: 1/8
M: 3/4
K: Db clef=bass
[K:clef=bass][M:3/4]F4F//E3//D | 
B,2F,F, G,F, ||  
[M:2/4]F,4 ||  
[M:3/4]E,E,E,4 | 
E,C,/B,,/B,,4 ||  
[M:2/4]F,F,F,2 ||  
[M:3/4]G,2G,4 | 
F,F,F,4 ||  
[M:2/4]F,F,F,2- | 
F,F, G,F, | 
F,4 |]  



